tools/download-figma-icons/icons/outlined-large/information.svg

<svg width="64" height="64" viewBox="0 0 64 64" fill="none" xmlns="http://www.w3.org/2000/svg">
<path fill-rule="evenodd" clip-rule="evenodd" d="M61 42.4499C61 44.9589 58.959 46.9999 56.4491 46.9999H25.3933C25.0623 46.9999 24.7403 47.1089 24.4793 47.3099L13.8814 55.4548V48.4999C13.8814 47.6719 13.2094 46.9999 12.3814 46.9999H7.56043C5.04645 46.9999 3.00047 44.9589 3.00047 42.4499V11.5602C3.00047 9.04618 5.04645 7.00019 7.56043 7.00019H56.4491C58.959 7.00019 61 9.04618 61 11.5602V42.4499ZM56.4491 4.00021H7.56043C3.39246 4.00021 0.000488278 7.39119 0.000488278 11.5602V42.4499C0.000488278 46.6129 3.39246 49.9999 7.56043 49.9999H10.8814V58.4998C10.8814 59.0708 11.2054 59.5928 11.7184 59.8458C11.9284 59.9488 12.1554 59.9998 12.3814 59.9998C12.7054 59.9998 13.0274 59.8938 13.2954 59.6888L25.9023 49.9999H56.4491C60.612 49.9999 64 46.6129 64 42.4499V11.5602C64 7.39119 60.612 4.00021 56.4491 4.00021ZM30.0369 38.4999H33.9548V23.322H30.0369V38.4999ZM29.399 18.1119C29.399 16.6689 30.568 15.4999 32.0099 15.4999C33.4519 15.4999 34.6219 16.6689 34.6219 18.1119C34.6219 19.5549 33.4519 20.7239 32.0099 20.7239C30.568 20.7239 29.399 19.5549 29.399 18.1119Z" fill="black"/>
</svg>

<svg width="64" height="64" viewBox="0 0 64 64" fill="none" xmlns="http://www.w3.org/2000/svg"><path fill-rule="evenodd" clip-rule="evenodd" d="M61 42.45A4.555 4.555 0 0 1 56.45 47H25.392a1.5 1.5 0 0 0-.914.31L13.88 55.455V48.5a1.5 1.5 0 0 0-1.5-1.5H7.56A4.56 4.56 0 0 1 3 42.45V11.56A4.566 4.566 0 0 1 7.56 7h48.888A4.56 4.56 0 0 1 61 11.56v30.89ZM56.45 4H7.56C3.392 4 0 7.391 0 11.56v30.89C0 46.613 3.392 50 7.56 50h3.321v8.5a1.5 1.5 0 0 0 2.414 1.189l12.607-9.69H56.45C60.612 50 64 46.614 64 42.45V11.56C64 7.391 60.612 4 56.45 4ZM30.036 38.5h3.918V23.322h-3.918V38.5Zm-.638-20.388a2.611 2.611 0 1 1 5.222-.002 2.611 2.611 0 0 1-5.222.002Z" fill="currentColor"/></svg>
